configs/.gemini/extensions/context7/docs/public/logo/logo.svg

<svg width="116" height="28" viewBox="0 0 116 28" fill="none" xmlns="http://www.w3.org/2000/svg">
<rect width="28" height="28" rx="4" fill="black" style="fill:black;fill-opacity:1;"/>
<path d="M10.5724 15.2565C10.5724 17.5025 9.6613 19.3778 8.17805 21.1047H11.6319L11.6319 22.7786H6.33459V21.1895C7.95557 19.3566 8.58065 17.8628 8.58065 15.2565L10.5724 15.2565Z" fill="white" style="fill:white;fill-opacity:1;"/>
<path d="M17.4276 15.2565C17.4276 17.5025 18.3387 19.3778 19.822 21.1047H16.3681V22.7786H21.6654V21.1895C20.0444 19.3566 19.4194 17.8628 19.4194 15.2565H17.4276Z" fill="white" style="fill:white;fill-opacity:1;"/>
<path d="M10.5724 12.7435C10.5724 10.4975 9.66131 8.62224 8.17807 6.89532L11.6319 6.89532V5.22137L6.33461 5.22137V6.81056C7.95558 8.64343 8.58066 10.1373 8.58066 12.7435L10.5724 12.7435Z" fill="white" style="fill:white;fill-opacity:1;"/>
<path d="M17.4276 12.7435C17.4276 10.4975 18.3387 8.62224 19.822 6.89532L16.3681 6.89532L16.3681 5.22138L21.6654 5.22138V6.81056C20.0445 8.64343 19.4194 10.1373 19.4194 12.7435H17.4276Z" fill="white" style="fill:white;fill-opacity:1;"/>
<path d="M41.168 20.272C38.227 20.272 36.544 17.875 36.544 13.982C36.544 10.072 38.227 7.658 41.168 7.658C43.514 7.658 45.112 9.273 45.537 12.129L43.055 12.248C42.817 10.667 42.103 9.8 41.168 9.8C39.791 9.8 39.026 11.296 39.026 13.982C39.026 16.651 39.791 18.13 41.168 18.13C42.137 18.13 42.868 17.212 43.106 15.512L45.571 15.631C45.18 18.572 43.582 20.272 41.168 20.272ZM50.9534 20.204C48.3694 20.204 46.6354 18.351 46.6354 15.444C46.6354 12.537 48.3694 10.684 50.9534 10.684C53.5374 10.684 55.2714 12.537 55.2714 15.444C55.2714 18.351 53.5374 20.204 50.9534 20.204ZM50.9534 18.164C52.1774 18.164 52.8744 17.195 52.8744 15.444C52.8744 13.693 52.1774 12.724 50.9534 12.724C49.7124 12.724 49.0324 13.693 49.0324 15.444C49.0324 17.195 49.7124 18.164 50.9534 18.164ZM56.9307 20V10.888H59.0387L59.0897 12.52C59.5657 11.262 60.5687 10.684 61.8437 10.684C63.7987 10.684 64.6827 12.095 64.6827 14.101V20H62.3707V14.628C62.3707 13.268 61.9117 12.639 60.9767 12.639C60.0247 12.639 59.2427 13.336 59.2427 14.73V20H56.9307ZM71.9011 20C69.8611 20 68.9261 19.082 68.9261 17.144V12.724H66.3081V10.888H68.9261V8.746H71.2381V10.888H74.6041V12.724H71.2381V16.923C71.2381 17.773 71.6291 18.164 72.4621 18.164H74.6041V20H71.9011ZM80.5814 20.204C78.0144 20.204 76.2464 18.334 76.2464 15.444C76.2464 12.605 77.9804 10.684 80.5474 10.684C83.0634 10.684 84.8144 12.571 84.8144 15.495V16.073H78.6264C78.7284 17.433 79.4934 18.164 80.6324 18.164C81.4654 18.164 82.0774 17.739 82.3154 17.059L84.6274 17.212C84.0154 19.133 82.6214 20.204 80.5814 20.204ZM78.6604 14.492H82.3494C82.2304 13.319 81.5334 12.724 80.5304 12.724C79.4934 12.724 78.8134 13.336 78.6604 14.492ZM85.8448 20L89.0748 15.342L85.9808 10.888H88.4968L90.3668 13.761L92.2198 10.888H94.7358L91.6928 15.342L94.8888 20H92.3898L90.3668 16.889L88.3608 20H85.8448ZM101.461 20C99.4212 20 98.4862 19.082 98.4862 17.144V12.724H95.8682V10.888H98.4862V8.746H100.798V10.888H104.164V12.724H100.798V16.923C100.798 17.773 101.189 18.164 102.022 18.164H104.164V20H101.461ZM107.813 20C107.813 16.345 109.343 13.013 111.842 10.106H105.892V7.93H114.256V9.987C111.485 13.149 110.346 15.852 110.346 20H107.813Z" fill="black" style="fill:black;fill-opacity:1;"/>
</svg>

<svg xmlns="http://www.w3.org/2000/svg" width="116" height="28" fill="none" viewBox="0 0 116 28"><rect width="28" height="28" fill="#000" rx="4" style="fill:#000;fill-opacity:1"/><path fill="#fff" d="M10.572 15.257c0 2.246-.91 4.12-2.394 5.848h3.454v1.674H6.335v-1.59c1.62-1.832 2.246-3.326 2.246-5.932zm6.856 0c0 2.246.91 4.12 2.394 5.848h-3.454v1.674h5.297v-1.59c-1.62-1.832-2.246-3.326-2.246-5.932zm-6.856-2.513c0-2.246-.91-4.122-2.394-5.849h3.454V5.221H6.335v1.59c1.62 1.832 2.246 3.326 2.246 5.932zm6.856 0c0-2.246.91-4.122 2.394-5.849h-3.454V5.221h5.297v1.59c-1.62 1.832-2.246 3.326-2.246 5.932z" style="fill:#fff;fill-opacity:1"/><path fill="#000" d="M41.168 20.272c-2.941 0-4.624-2.397-4.624-6.29 0-3.91 1.683-6.324 4.624-6.324 2.346 0 3.944 1.615 4.369 4.471l-2.482.119c-.238-1.581-.952-2.448-1.887-2.448-1.377 0-2.142 1.496-2.142 4.182 0 2.669.765 4.148 2.142 4.148.969 0 1.7-.918 1.938-2.618l2.465.119c-.391 2.941-1.989 4.641-4.403 4.641m9.785-.068c-2.584 0-4.318-1.853-4.318-4.76s1.734-4.76 4.318-4.76 4.318 1.853 4.318 4.76-1.734 4.76-4.318 4.76m0-2.04c1.224 0 1.921-.969 1.921-2.72s-.697-2.72-1.92-2.72c-1.242 0-1.922.969-1.922 2.72s.68 2.72 1.921 2.72M56.931 20v-9.112h2.108l.05 1.632c.477-1.258 1.48-1.836 2.755-1.836 1.955 0 2.839 1.411 2.839 3.417V20H62.37v-5.372c0-1.36-.46-1.989-1.394-1.989-.952 0-1.734.697-1.734 2.091V20zm14.97 0c-2.04 0-2.975-.918-2.975-2.856v-4.42h-2.618v-1.836h2.618V8.746h2.312v2.142h3.366v1.836h-3.366v4.199c0 .85.391 1.241 1.224 1.241h2.142V20zm8.68.204c-2.567 0-4.335-1.87-4.335-4.76 0-2.839 1.734-4.76 4.301-4.76 2.516 0 4.267 1.887 4.267 4.811v.578h-6.188c.102 1.36.867 2.091 2.006 2.091.833 0 1.445-.425 1.683-1.105l2.312.153c-.612 1.921-2.006 2.992-4.046 2.992m-1.92-5.712h3.688c-.119-1.173-.816-1.768-1.819-1.768-1.037 0-1.717.612-1.87 1.768M85.844 20l3.23-4.658-3.094-4.454h2.516l1.87 2.873 1.853-2.873h2.516l-3.043 4.454L94.889 20h-2.5l-2.022-3.111L88.36 20zm15.616 0c-2.04 0-2.975-.918-2.975-2.856v-4.42h-2.618v-1.836h2.618V8.746h2.312v2.142h3.366v1.836h-3.366v4.199c0 .85.391 1.241 1.224 1.241h2.142V20zm6.352 0c0-3.655 1.53-6.987 4.029-9.894h-5.95V7.93h8.364v2.057c-2.771 3.162-3.91 5.865-3.91 10.013z" style="fill:#000;fill-opacity:1"/></svg>
